X: 30656
T: Oot An' In Da Hairbour
R: reel
M: 4/4
K: Amixolydian
A2 cA eAce|dcBA GE E2|EAcA eAce|dfed cA A2|
EAcA eAce|dcBA GE E2|EAcA eAce|dfed cefg|
|:a2 ec adec|adec dBBe|{fg}a2 ec adec|1 dfed cAAe:|2 dfed cA A2||

